!!!COM: Bach, Johann Sebastian
!!!OPR: Joh. Seb. Bachs vierstimmige Choralgesänge
!!!XEN: Four-part Chorales
!!!OTL: Chorale 183. Wie schön leuchtet der Morgenstern
!!!SCT: BWV 436
!!!SCA: Thematisch-systematisches Verzeichnis der musikalischen Werke Johann Sebastian Bach: Bach-Werke-Verzeichnis (Schmieder)
!!!YOR: Bach Gesellschaft Edition xxxix
!!!ENC: Steven Rasmussen
!!!CDT: 1685/3//-1750/7/28/
!!!OCY: Deutschland
!!!YEC: Copyright (c) 1994, 2000 Center for Computer Assisted Research in the Humanities
!!!YEM: Rights to all derivative editions reserved
!!!YEN: United States of America
**kern	**silbe	**kern	**silbe	**kern	**kern	**silbe
*I"[BASSO]	*I"[BASSO]	*I"[TENORE]	*I"[TENORE]	*I"[ALTO]	*I"[SOPRANO]	*I"[SOPRANO]
*>[A,A,B]	*	*>[A,A,B]	*	*>[A,A,B]	*>[A,A,B]	*
*>A	*	*>A	*	*>A	*>A	*
*clefF4	*	*clefGv2	*	*clefG2	*clefG2	*
*k[f#c#g#d#]	*	*k[f#c#g#d#]	*	*k[f#c#g#d#]	*k[f#c#g#d#]	*
*E:	*	*E:	*	*E:	*E:	*
*M4/4	*	*M4/4	*	*M4/4	*M4/4	*
4E	.	4G#	.	4B	4e	Wiedu
=1	=1	=1	=1	=1	=1	=1
4D#	.	4F#	.	4B	4b	schönSohn
4E	.	8EL	.	4B	4g#	leuch-Da-
.	.	8F#J	.	.	.	.
4C#	.	8G#L	.	4c#	4e	-tet-vids
.	.	8A#J	.	.	.	.
4G#	.	4B	.	4d#	4b	deraus
=2	=2	=2	=2	=2	=2	=2
4E	.	4B	.	4g#	4cc#	Mor-Ja-
4F#	.	4A#	.	4f#	4cc#	-gen--kobs
4BB;	.	4d#;	.	4f#;	4b;	-sternStamm,
4E	.	4e	.	4g#	4b	vollmein
=3	=3	=3	=3	=3	=3	=3
4A	.	4e	.	4a	4cc#	Gnad'Kö-
8G#L	.	4f#	.	4a	4dd#	und-nig
8F#J	.	.	.	.	.	.
8G#L	.	4B	.	4g#	4ee	Wahr-und
8A#J	.	.	.	.	.	.
4B	.	4B	.	4f#	4dd#	-heitmein
=4	=4	=4	=4	=4	=4	=4
4F#	.	4B	.	8f#L	4cc#	vonBräu-
.	.	.	.	8g#J	.	.
4FF#	.	4A#	.	8f#L	4cc#	dem-ti-
.	.	.	.	8eJ	.	.
4BB;	.	4B;	.	4d#;	4b;	Herrn,-gam,
4E	.	4B	.	4e	4g#	diehast
=5	=5	=5	=5	=5	=5	=5
4AA	.	8AL	.	4e	4cc#	sü-mir
.	.	8G#J	.	.	.	.
4BB	.	4F#	.	4d#	4b	-ssemein
8C#L	.	4c#	.	8eL	4a	Wur-Herz
8D#J	.	.	.	8f#J	.	.
4E	.	4B	.	8g#L	4g#	-zelbe-
.	.	.	.	8eJ	.	.
=6	=6	=6	=6	=6	=6	=6
2BB	.	4.B	.	4e	2f#	Jes--ses-
.	.	.	.	4d#	.	.
.	.	8A	.	.	.	.
4E;	.	4G#;	.	4B;	4e;	-se;-sen.
=:|!	=:|!	=:|!	=:|!	=:|!	=:|!	=:|!
*>B	*	*>B	*	*>B	*>B	*
4r	.	4r	.	4r	4r	.
=7	=7	=7	=7	=7	=7	=7
2D#	.	2B	.	2f#	2b	Lieb-
2E;	.	2B;	.	2e;	2g#;	-lich,
=8	=8	=8	=8	=8	=8	=8
2BB	.	2d#	.	2f#	2b	freund-
2C#;	.	2c#;	.	2e;	2g#;	-lich,
=9	=9	=9	=9	=9	=9	=9
4F#	.	4c#	.	4f#	4a	schön
4G#	.	4B	.	4e	4g#	und
8AL	.	4B	.	4d#	4f#	herr-
8G#J	.	.	.	.	.	.
8F#L	.	4B	.	4e	4g#	-lich,
8EJ	.	.	.	.	.	.
=10	=10	=10	=10	=10	=10	=10
4D#	.	4B	.	4f#	4a	gross
4E	.	4B	.	4e	4g#	und
8BBL	.	4B	.	4d#	4f#	ehr-
8BJ	.	.	.	.	.	.
8AL	.	4B	.	4e	4g#	-lich,
8G#J	.	.	.	.	.	.
=11	=11	=11	=11	=11	=11	=11
4F#	reich	8c#	reich	4f#	4a	reich
.	.	8d#	von	.	.	.
8C#L	von	[4e	Ga-	8eL	4g#	von
8BBJ	.	.	.	8d#J	.	.
4AA	Ga-	8eL]	.	8c#L	2f#	Ga-
.	.	8c#	.	16d#L	.	.
.	.	.	.	16eJJ	.	.
4BB	.	8B	.	4d#	.	.
.	.	8AJ	.	.	.	.
=12	=12	=12	=12	=12	=12	=12
2E;	-ben,	2G#;	-ben,	2B;	2e;	-ben,
4C#	.	8c#L	.	4g#	4ee	hoch
.	.	8BJ	.	.	.	.
4D#	.	4A#	.	4f##	4dd#	und
=13	=13	=13	=13	=13	=13	=13
8E#L	.	4G#	.	4g#	4cc#	sehr
8F##J	.	.	.	.	.	.
4G#	.	4d#	.	8g#L	4b	präch-
.	.	.	.	8f#J	.	.
8C#L	.	4c#	.	4e	4a	-tig
8D#J	.	.	.	.	.	.
4En	.	4B	.	4e	4g#	er-
=14	=14	=14	=14	=14	=14	=14
4AA#	.	4c#	.	4e	2f#	-ha-
4BB	.	8BL	.	4d#	.	.
.	.	8AJ	.	.	.	.
4E;	.	4G#;	.	4B;	4e;	-ben.
==|!	==|!	==|!	==|!	==|!	==|!	==|!
*-	*-	*-	*-	*-	*-	*-
!!!RWG: Key is interpreted using the Humdrum key tool.
!!!URL-pdf: https://s9.imslp.org/files/imglnks/usimg/6/6b/IMSLP24489-PMLP09471-CCARH_Bach_Chorales.pdf#page=126 Musedata edition
!!!URL-pdf: https://s9.imslp.org/files/imglnks/usimg/7/7a/IMSLP04155-Bach_-_BGA_253-438.pdf#page=100 	Bach-Gesellschaft Ausgabe, Band 39 (pp.175-276) Leipzig: Breitkopf und Härtel, 1892. Plate B.W. XXXIX.
!!!END: 1994/08/09
!!!EMD: Converted from MuseData to Humdrum Dec 19, 2000, by Andreas Kornstaedt using muse2kern.
!!!EED: Craig Stuart Sapp
!!!EEV: 2024/03/31
!!!filter-keyboard: extract -i kern | satb2gs
!!!title: @{OTL} (@{SCT})
